trunk/public/assets/images/icons/blue/code.svg

<svg width="16" height="16" xmlns="http://www.w3.org/2000/svg" viewBox="0 0 16 16" shape-rendering="geometricPrecision" fill="#24437c"><path d="M9.284 2.017c-.438 0-.546.125-.735.747l-2.88 9.274c-.168.554-.277.904-.277 1.108 0 .544.408.78.725.78.437 0 .546-.124.734-.746L9.73 3.907c.17-.555.277-.906.277-1.108 0-.546-.405-.783-.723-.783zM4.523 3.425c.132-.414-.12-.725-.362-.826-.332-.14-.445-.08-.74.334L.583 6.854c-.193.27-.315.452-.397.598-.025.037-.045.076-.063.12-.005.01-.02.03-.022.038-.005.018 0 .032-.006.05-.014.052-.02.105-.02.165 0 .06.006.115.02.168.005.017 0 .03.006.047.003.01.017.027.02.038.02.045.04.084.066.122.082.147.203.327.396.598l2.834 3.92c.296.412.41.474.742.336.243-.102.494-.413.362-.828-.05-.152-.22-.387-.482-.756L1.405 7.825 4.04 4.182c.264-.37.433-.603.483-.757zM15.988 7.825c0-.06-.006-.114-.02-.168-.004-.017 0-.03-.005-.047-.003-.01-.017-.027-.02-.038-.02-.044-.04-.083-.065-.12-.082-.146-.203-.328-.397-.6l-2.834-3.918c-.296-.414-.41-.475-.742-.336-.243.102-.495.412-.362.826.05.154.22.39.48.758l2.638 3.643-2.637 3.645c-.263.368-.432.604-.48.756-.134.415.118.727.36.828.334.138.447.076.743-.337l2.835-3.92c.193-.27.314-.448.396-.596.027-.037.048-.078.066-.123.004-.01.017-.027.02-.037.005-.017 0-.03.005-.045.015-.054.022-.11.02-.17z"/></svg>

<?xml version="1.0"?><!DOCTYPE svg PUBLIC "-//W3C//DTD SVG 1.1//EN" "http://www.w3.org/Graphics/SVG/1.1/DTD/svg11.dtd"><svg width="16px" height="16px" xmlns="http://www.w3.org/2000/svg" viewBox="0 0 16 16" shape-rendering="geometricPrecision" fill="#24437c"><g><path d="M9.284,2.017c-0.438,0-0.546,0.125-0.735,0.747L5.67,12.038 c-0.168,0.554-0.277,0.904-0.277,1.108c0,0.544,0.408,0.781,0.725,0.781c0.437,0,0.546-0.125,0.734-0.747L9.73,3.907 c0.169-0.555,0.277-0.906,0.277-1.108C10.008,2.254,9.602,2.017,9.284,2.017z"/><path d="M4.523,3.425C4.655,3.011,4.404,2.7,4.161,2.599C3.828,2.46,3.715,2.52,3.419,2.934 L0.584,6.853C0.391,7.125,0.269,7.306,0.187,7.452C0.162,7.489,0.142,7.528,0.124,7.571C0.119,7.582,0.105,7.601,0.102,7.61 C0.097,7.628,0.101,7.642,0.096,7.659c-0.014,0.053-0.02,0.106-0.019,0.166c0,0.061,0.005,0.115,0.02,0.168 c0.004,0.017,0,0.03,0.005,0.047c0.003,0.01,0.017,0.027,0.021,0.038C0.141,8.123,0.162,8.162,0.188,8.2 C0.27,8.347,0.391,8.527,0.584,8.798l2.834,3.919c0.296,0.413,0.41,0.475,0.742,0.337c0.243-0.102,0.494-0.413,0.362-0.828 c-0.05-0.152-0.219-0.387-0.482-0.756L1.405,7.825l2.636-3.643C4.304,3.813,4.473,3.579,4.523,3.425z"/><path d="M15.988,7.825c0-0.06-0.006-0.114-0.02-0.168c-0.004-0.017,0-0.03-0.005-0.047 c-0.003-0.01-0.017-0.027-0.021-0.038c-0.019-0.044-0.039-0.083-0.064-0.12c-0.082-0.146-0.203-0.328-0.397-0.599l-2.835-3.919 c-0.296-0.414-0.411-0.475-0.742-0.336c-0.243,0.102-0.495,0.412-0.362,0.826c0.05,0.154,0.219,0.389,0.481,0.758l2.637,3.643 l-2.637,3.645c-0.263,0.368-0.432,0.604-0.481,0.756c-0.133,0.415,0.119,0.727,0.362,0.828c0.333,0.138,0.446,0.076,0.742-0.337 l2.835-3.919c0.192-0.27,0.313-0.449,0.395-0.597c0.027-0.038,0.048-0.079,0.066-0.124c0.004-0.011,0.017-0.027,0.02-0.037 c0.005-0.017,0.001-0.029,0.005-0.045C15.982,7.941,15.989,7.886,15.988,7.825z"/></g></svg>
